src/assets/wed_icon/icon_24/task_default.svg

<svg width="24" height="24" viewBox="0 0 24 24" fill="none" xmlns="http://www.w3.org/2000/svg">
<path fill-rule="evenodd" clip-rule="evenodd" d="M9.5817 3.57647L4.00944 6.42626C2.66352 7.11459 2.66352 8.8854 4.00944 9.57374L9.5817 12.4235C11.0846 13.1922 12.9154 13.1922 14.4183 12.4235L19.9906 9.57374C21.3365 8.88541 21.3365 7.1146 19.9906 6.42626L14.4183 3.57647C12.9154 2.80784 11.0846 2.80784 9.5817 3.57647ZM13.7353 4.91195C12.6613 4.36268 11.3387 4.36268 10.2647 4.91195L4.69244 7.76174C4.59294 7.81262 4.54964 7.86561 4.53007 7.89743C4.50867 7.93223 4.5 7.96718 4.5 8C4.5 8.03283 4.50867 8.06777 4.53007 8.10257C4.54964 8.13439 4.59294 8.18737 4.69244 8.23826L10.2647 11.088C11.3387 11.6373 12.6613 11.6373 13.7353 11.088L19.3076 8.23826C19.4071 8.18738 19.4504 8.13439 19.4699 8.10257C19.4913 8.06777 19.5 8.03282 19.5 8C19.5 7.96717 19.4913 7.93223 19.4699 7.89743C19.4504 7.86561 19.4071 7.81263 19.3076 7.76174L13.7353 4.91195Z" fill="#C6C6D2"/>
<path fill-rule="evenodd" clip-rule="evenodd" d="M9.5817 11.5765L4.00944 14.4263C2.66352 15.1146 2.66352 16.8854 4.00944 17.5737L9.5817 20.4235C11.0846 21.1922 12.9154 21.1922 14.4183 20.4235L19.9906 17.5737C21.3365 16.8854 21.3365 15.1146 19.9906 14.4263L14.4183 11.5765C12.9154 10.8078 11.0846 10.8078 9.5817 11.5765ZM13.7353 12.912C12.6613 12.3627 11.3387 12.3627 10.2647 12.912L4.69244 15.7617C4.59294 15.8126 4.54964 15.8656 4.53007 15.8974C4.50867 15.9322 4.5 15.9672 4.5 16C4.5 16.0328 4.50867 16.0678 4.53007 16.1026C4.54964 16.1344 4.59294 16.1874 4.69244 16.2383L10.2647 19.088C11.3387 19.6373 12.6613 19.6373 13.7353 19.088L19.3076 16.2383C19.4071 16.1874 19.4504 16.1344 19.4699 16.1026C19.4913 16.0678 19.5 16.0328 19.5 16C19.5 15.9672 19.4913 15.9322 19.4699 15.8974C19.4504 15.8656 19.4071 15.8126 19.3076 15.7617L13.7353 12.912Z" fill="#C6C6D2"/>
<path d="M14.4183 7.57647C12.9154 6.80784 11.0846 6.80784 9.5817 7.57647L4.00944 10.4263C2.66352 11.1146 2.66352 12.8854 4.00944 13.5737L9.5817 16.4235C11.0846 17.1922 12.9154 17.1922 14.4183 16.4235L19.9906 13.5737C21.3365 12.8854 21.3365 11.1146 19.9906 10.4263L14.4183 7.57647Z" fill="#C6C6D2"/>
</svg>

<svg xmlns="http://www.w3.org/2000/svg" width="24" height="24" fill="none"><path fill="#C6C6D2" fill-rule="evenodd" d="m9.582 3.576-5.573 2.85c-1.345.689-1.345 2.46 0 3.148l5.573 2.85a5.36 5.36 0 0 0 4.836 0l5.573-2.85c1.346-.689 1.346-2.46 0-3.148l-5.573-2.85a5.36 5.36 0 0 0-4.836 0m4.153 1.336a3.86 3.86 0 0 0-3.47 0l-5.573 2.85a.4.4 0 0 0-.162.135A.2.2 0 0 0 4.5 8q0 .05.03.103c.02.031.063.084.162.135l5.573 2.85a3.86 3.86 0 0 0 3.47 0l5.573-2.85c.1-.05.142-.104.162-.135A.2.2 0 0 0 19.5 8a.2.2 0 0 0-.03-.103.4.4 0 0 0-.162-.135z" clip-rule="evenodd"/><path fill="#C6C6D2" fill-rule="evenodd" d="m9.582 11.577-5.573 2.85c-1.345.688-1.345 2.458 0 3.147l5.573 2.85a5.36 5.36 0 0 0 4.836 0l5.573-2.85c1.346-.689 1.346-2.46 0-3.148l-5.573-2.85a5.36 5.36 0 0 0-4.836 0m4.153 1.335a3.86 3.86 0 0 0-3.47 0l-5.573 2.85a.4.4 0 0 0-.162.135.2.2 0 0 0-.03.103q0 .05.03.103c.02.031.063.084.162.135l5.573 2.85a3.86 3.86 0 0 0 3.47 0l5.573-2.85c.1-.05.142-.104.162-.135A.2.2 0 0 0 19.5 16a.2.2 0 0 0-.03-.103.4.4 0 0 0-.162-.135z" clip-rule="evenodd"/><path fill="#C6C6D2" d="M14.418 7.576a5.36 5.36 0 0 0-4.836 0l-5.573 2.85c-1.345.689-1.345 2.46 0 3.148l5.573 2.85a5.36 5.36 0 0 0 4.836 0l5.573-2.85c1.346-.689 1.346-2.46 0-3.148z"/></svg>
